src/icons/solid/symbols/desktop.svg

<svg width="24" height="24" viewBox="0 0 24 24" fill="none" xmlns="http://www.w3.org/2000/svg">
<g clip-path="url(#clip0_6362_1233)">
<path d="M13.735 19.7764C13.7956 19.7764 13.8668 19.7961 13.9173 19.8262C13.9666 19.8459 14.0544 19.9326 14.0583 19.9365L14.0485 19.9473L15.956 22.2754C16.0063 22.3455 16.0363 22.4258 16.0363 22.5059C16.0464 22.5861 16.0258 22.6768 15.9854 22.7471C15.945 22.8172 15.8844 22.8877 15.8139 22.9277C15.7434 22.9678 15.6623 22.998 15.5818 22.998H8.18507C8.09425 23.0081 8.00325 22.9874 7.92251 22.9473C7.84189 22.9071 7.78162 22.837 7.74127 22.7568C7.69081 22.6866 7.67073 22.6059 7.67073 22.5156C7.67079 22.4255 7.70097 22.3455 7.74127 22.2754L9.67813 19.9473C9.72857 19.8971 9.77925 19.8563 9.83978 19.8262C9.90033 19.7961 9.96115 19.7764 10.0318 19.7764H13.735Z" fill="#3C3B44"/>
<path fill-rule="evenodd" clip-rule="evenodd" d="M21.94 1C22.2225 1 22.4954 1.11082 22.6973 1.31152C22.8889 1.50218 23 1.77284 23 2.05371V2.4209C23 2.61328 23 2.62808 23 2.80566V16.4844C23 16.6547 23 16.9414 23 17.1172V17.4883C23 17.7691 22.8891 18.0398 22.6875 18.2305C22.4957 18.4211 22.2225 18.542 21.94 18.542H2.06003C1.77746 18.542 1.50456 18.4312 1.30273 18.2305C1.11113 18.0398 1.00001 17.7691 1 17.4883V2.05371C1 1.77291 1.11095 1.50218 1.31252 1.31152C1.50426 1.12085 1.77746 1 2.06003 1H21.94ZM2.37255 15.0645H21.7489V3.64551H2.37255V15.0645Z" fill="#3C3B44"/>
</g>
<defs>
<clipPath id="clip0_6362_1233">
<rect width="24" height="24" fill="white"/>
</clipPath>
</defs>
</svg>

<svg xmlns="http://www.w3.org/2000/svg" width="24" height="24" fill="none" viewBox="0 0 24 24"><g fill="currentColor" clip-path="url(#a)"><path d="M13.735 19.776c.06 0 .132.02.182.05.05.02.137.107.141.11l-.01.011 1.908 2.328a.4.4 0 0 1 .08.23.4.4 0 0 1-.05.242.48.48 0 0 1-.404.25H8.185a.5.5 0 0 1-.262-.05.4.4 0 0 1-.182-.19.4.4 0 0 1-.07-.241c0-.09.03-.17.07-.24l1.937-2.329a.6.6 0 0 1 .162-.12.4.4 0 0 1 .192-.05z"/><path fill-rule="evenodd" d="M21.94 1A1.047 1.047 0 0 1 23 2.054v15.434c0 .281-.11.552-.312.742a1.08 1.08 0 0 1-.748.312H2.06c-.283 0-.555-.11-.757-.312A1.05 1.05 0 0 1 1 17.489V2.054c0-.281.111-.552.313-.742C1.504 1.12 1.777 1 2.06 1zM2.373 15.065h19.376V3.645H2.373z" clip-rule="evenodd"/></g><defs><clipPath id="a"><path fill="currentColor" d="M0 0h24v24H0z"/></clipPath></defs></svg>
